src/assets/images/icons/menu-unfold-line.svg

<svg width="24" height="24" viewBox="0 0 24 24" fill="none" xmlns="http://www.w3.org/2000/svg">
<g clip-path="url(#clip0_58_16660)">
<path d="M21 18.0001V20.0001H3V18.0001H21ZM17.404 3.90405L22 8.50005L17.404 13.0961L15.99 11.6821L19.172 8.50005L15.99 5.31805L17.404 3.90405ZM12 11.0001V13.0001H3V11.0001H12ZM12 4.00005V6.00005H3V4.00005H12Z" fill="#181D27"/>
</g>
<defs>
<clipPath id="clip0_58_16660">
<rect width="24" height="24" fill="white"/>
</clipPath>
</defs>
</svg>

<svg xmlns="http://www.w3.org/2000/svg" width="24" height="24" fill="none" viewBox="0 0 24 24"><g clip-path="url(#a)"><path fill="#181d27" d="M21 18v2H3v-2zM17.404 3.904 22 8.5l-4.596 4.596-1.414-1.414L19.172 8.5 15.99 5.318zM12 11v2H3v-2zm0-7v2H3V4z"/></g><defs><clipPath id="a"><path fill="#fff" d="M0 0h24v24H0z"/></clipPath></defs></svg>
